X:460
T: WIE MACHENS DENN DIE SCHNEIDER
N: E1714
O: Europa, Mitteleuropa, Deutschland, Hessen, Taunus
R: Spott - Lied auf verschiedene Handwerker
M: 2/4
L: 1/16
K: D
DF | A2A2B3A | A4F2z2
A4G2E2 | D4z2
DF | A2A2B3A | A4F2z2
A4G2E2 | D4z4
B2B2B2B2 | B2A2A2F2
A2G2G2E2 | A3GF2F2
F4G2A2 | B4z4
A4G2E2 | D4z2

